X: 1
T: The Fiddler's Chair
M: 4/4
L: 1/8
R: single reel
K: Gmaj
B2Ad BG~G2|DEFG ABcA|GEED E2DE|1 GBAF GDGA:|2 GBAF GABd||
~e3f gage|gage dB~B2|GEED E2DE|GBAF GABd|
edef ~g3e|gage dB~B2|degb a2ga|bgaf gedc||
